www/assets/icons/forward_10.svg

<svg xmlns="http://www.w3.org/2000/svg" width="24" height="24" viewBox="0 0 24 24" fill='currentColor'><path d="M18 14c0 3.31-2.69 6-6 6s-6-2.69-6-6 2.69-6 6-6v4l5-5-5-5v4c-4.42 0-8 3.58-8 8s3.58 8 8 8 8-3.58 8-8z"/><path d="M10.86 16.94v-4.27h-.09L9 13.3v.69l1.01-.31v3.26zm1.39-2.5v.74c0 1.9 1.31 1.82 1.44 1.82.14 0 1.44.09 1.44-1.82v-.74c0-1.9-1.31-1.82-1.44-1.82-.14 0-1.44-.09-1.44 1.82m2.04-.12v.97c0 .77-.21 1.03-.59 1.03s-.6-.26-.6-1.03v-.97c0-.75.22-1.01.59-1.01.38-.01.6.26.6 1.01"/></svg>

<svg width="24" height="24" viewBox="0 0 24 24" xmlns="http://www.w3.org/2000/svg" fill='currentColor'><path d="M18 14C18 17.31 15.31 20 12 20C8.69 20 6 17.31 6 14C6 10.69 8.69 8 12 8V12L17 7L12 2V6C7.58 6 4 9.58 4 14C4 18.42 7.58 22 12 22C16.42 22 20 18.42 20 14H18Z"/><path d="M10.86 16.94V12.67H10.77L9 13.3V13.99L10.01 13.68V16.94H10.86Z"/><path d="M12.25 14.44V15.18C12.25 17.08 13.56 17 13.69 17C13.83 17 15.13 17.09 15.13 15.18V14.44C15.13 12.54 13.82 12.62 13.69 12.62C13.55 12.62 12.25 12.53 12.25 14.44ZM14.29 14.32V15.29C14.29 16.06 14.08 16.32 13.7 16.32C13.32 16.32 13.1 16.06 13.1 15.29V14.32C13.1 13.57 13.32 13.31 13.69 13.31C14.07 13.3 14.29 13.57 14.29 14.32Z"/></svg>
